gama.ui.shared/icons_svg/light/navigator/import.project.svg

<svg height="25" viewBox="-510.549 -3707.499 25 25" width="25" xmlns="http://www.w3.org/2000/svg"><g fill="none"><path d="m-506.2087-3706.9985h16.32c2.1208 0 3.84 1.7192 3.84 3.84v16.32c0 2.1207-1.7192 3.84-3.84 3.84h-16.32c-2.12075 0-3.84-1.7193-3.84-3.84v-16.32c0-2.1208 1.71925-3.84 3.84-3.84z" fill="#fff"/><path d="m-506.2087-3706.9985h16.32c2.1208 0 3.84 1.7192 3.84 3.84v16.32c0 2.1207-1.7192 3.84-3.84 3.84h-16.32c-2.12075 0-3.84-1.7193-3.84-3.84v-16.32c0-2.1208 1.71925-3.84 3.84-3.84z" stroke="#000" stroke-linecap="round" stroke-linejoin="round" stroke-width=".25"/><path d="m-504.1307-3700.5985c-.6627 0-1.2.5372-1.2 1.2v8.8c0 .6625.5373 1.2 1.2 1.2h12c.66276 0 1.2-.5375 1.2-1.2v-6.4c0-.6628-.53724-1.2-1.2-1.2h-4.4c-.88364 0-1.6-.7165-1.6-1.6 0-.4419-.35815-.8-.8-.8zm0-.8h5.2c.8837 0 1.6.7165 1.6 1.6 0 .4418.3582.8.8.8h4.4c1.1046 0 2 .8955 2 2v6.4c0 1.1045-.8954 2-2 2h-12c-1.10455 0-2-.8955-2-2v-8.8c0-1.1045.89545-2 2-2z" fill="#5c76a1"/></g></svg>

<?xml version="1.0" encoding="UTF-8" standalone="no"?>
<!DOCTYPE svg PUBLIC "-//W3C//DTD SVG 1.1//EN" "http://www.w3.org/Graphics/SVG/1.1/DTD/svg11.dtd">
<svg version="1.1" xmlns="http://www.w3.org/2000/svg" xmlns:xl="http://www.w3.org/1999/xlink" xmlns:dc="http://purl.org/dc/elements/1.1/" viewBox="-510.5487 -3707.4985 25 25" width="25" height="25">
  <defs/>
  <g id="SOURCES" stroke-dasharray="none" fill="none" stroke="none" fill-opacity="1" stroke-opacity="1">
    <title>SOURCES</title>
    <g id="SOURCES_Calque_1">
      <title>Calque 1</title>
      <g id="Graphic_6502">
        <title>views/view.other</title>
        <path d="M -506.2087 -3706.9985 L -489.8887 -3706.9985 C -487.7679 -3706.9985 -486.0487 -3705.2793 -486.0487 -3703.1585 L -486.0487 -3686.8385 C -486.0487 -3684.7178 -487.7679 -3682.9985 -489.8887 -3682.9985 L -506.2087 -3682.9985 C -508.32945 -3682.9985 -510.0487 -3684.7178 -510.0487 -3686.8385 L -510.0487 -3703.1585 C -510.0487 -3705.2793 -508.32945 -3706.9985 -506.2087 -3706.9985 Z" fill="white"/>
        <path d="M -506.2087 -3706.9985 L -489.8887 -3706.9985 C -487.7679 -3706.9985 -486.0487 -3705.2793 -486.0487 -3703.1585 L -486.0487 -3686.8385 C -486.0487 -3684.7178 -487.7679 -3682.9985 -489.8887 -3682.9985 L -506.2087 -3682.9985 C -508.32945 -3682.9985 -510.0487 -3684.7178 -510.0487 -3686.8385 L -510.0487 -3703.1585 C -510.0487 -3705.2793 -508.32945 -3706.9985 -506.2087 -3706.9985 Z" stroke="black" stroke-linecap="round" stroke-linejoin="round" stroke-width=".25"/>
      </g>
      <g id="Graphic_6505">
        <path d="M -504.1307 -3700.5985 C -504.7934 -3700.5985 -505.3307 -3700.0613 -505.3307 -3699.3985 L -505.3307 -3690.5985 C -505.3307 -3689.936 -504.7934 -3689.3985 -504.1307 -3689.3985 L -492.1307 -3689.3985 C -491.46794 -3689.3985 -490.9307 -3689.936 -490.9307 -3690.5985 L -490.9307 -3696.9985 C -490.9307 -3697.6613 -491.46794 -3698.1985 -492.1307 -3698.1985 L -496.5307 -3698.1985 C -497.41434 -3698.1985 -498.1307 -3698.915 -498.1307 -3699.7985 C -498.1307 -3700.2404 -498.48885 -3700.5985 -498.9307 -3700.5985 Z M -504.1307 -3701.3985 L -498.9307 -3701.3985 C -498.047 -3701.3985 -497.3307 -3700.682 -497.3307 -3699.7985 C -497.3307 -3699.3567 -496.9725 -3698.9985 -496.5307 -3698.9985 L -492.1307 -3698.9985 C -491.0261 -3698.9985 -490.1307 -3698.103 -490.1307 -3696.9985 L -490.1307 -3690.5985 C -490.1307 -3689.494 -491.0261 -3688.5985 -492.1307 -3688.5985 L -504.1307 -3688.5985 C -505.23525 -3688.5985 -506.1307 -3689.494 -506.1307 -3690.5985 L -506.1307 -3699.3985 C -506.1307 -3700.503 -505.23525 -3701.3985 -504.1307 -3701.3985 Z" fill="#5c76a1"/>
      </g>
    </g>
  </g>
</svg>
